spark-frontend/src/assets/icons/download.svg

<svg width="24" height="24" viewBox="0 0 24 24" fill="none" xmlns="http://www.w3.org/2000/svg">
    <path d="M16 12.875L12.5747 16H11.4227L8 12.875L9.056 11.885L10.6867 13.345L11.0707 13.9L11.3107 13.825L11.1987 13.165V4H12.7987V13.165L12.6867 13.825L12.9267 13.9L13.3107 13.345L14.944 11.885L16 12.875Z" fill="#969696"/>
    <path d="M4 20H20V18.42H4V20Z" fill="#969696"/>
</svg>

<svg xmlns="http://www.w3.org/2000/svg" width="24" height="24" fill="none"><path fill="#969696" d="M16 12.875 12.575 16h-1.152L8 12.875l1.056-.99 1.63 1.46.385.555.24-.075-.112-.66V4h1.6v9.165l-.112.66.24.075.384-.555 1.633-1.46zM4 20h16v-1.58H4z"/></svg>
